X: 25469
T: Marches Des Dames Au Chateau
R: polka
M: 2/4
K: Gmajor
V:1
|:"G"GB Gd|d>e dB|d4|dc Bc|"D"A4|
"G"GB cd|"D"e>f ed|e2 ef/e/|"D" dc BA|"G" G4:|
|:"C"cB cd|cB cd|c3 B/A/|G4|g>f ec|
c e/d/ cd|e2 e/f/e/d/|cd ef|"G"gf ed|"C"c4:|
V:2
|:DG GB|B>c BG|B4|BA GA|D4|
[B,D][DG] [EA][FB]|[Gc]>[Ad] [Gc][FB]|[G2c2][GC][A/d/][G/c/]|[FB][EA] [DG][Cc]|[B,4 B4]:|
|:ED EF|ED EF|E3 D/F/|E4|E>A GE|
E G/F/ EF|G2 G/A/G/F/|EF GA|BA GF|E4:|

